X:3488
T: Lady Mary Ramsay
O:england
C: Nathaniel Gow
R: hornpipe
B: RSCDS __-10(b)
M: 4/4
L: 1/8
K: G
B \
| "G"G2- "C"Ge "G"d<B "Em"B>e | "G"d<B "C"e>c "G"d<B B>g \
| "G"G2- "C"Ge "G"d<B B>d "C"e<G "G"d>B "D7"A3 :|
|| g/a/ \
| "G"b<g g>b "D7"a<f f>a | "C"g<e e>g "G"d<B Bg/a/ \
| "G"b<g g>b "D7"a<f "G"g>d | "C"e<g "G"d>B "D7"A3 ||
|| g/a/ \
| "G"b<g g>b "D7"a<f f>a | "G"g<b "C"e>g "G"d<B B>d \
| "G"g<b "D7"f>a "Em"e<g "G"d>e | "G"d<g "G"d>B "D7"A3 |]


